packages/web-icons/svgs/windows.svg

<svg viewBox="0 0 48 48" xmlns="http://www.w3.org/2000/svg" class="ridi_icon"><path d="M20.4 23.1v-19L47.7 0v23.2l-27.3-.1zm-20 0v-16l17.9-2.7v18.7H.4zm17.9 2.2v18.3L.4 40.9V25.3h17.9zm29.4 0V48l-27.2-4.1V25.3h27.2z"/></svg>

<?xml version="1.0" encoding="UTF-8"?>
<svg width="48px" height="48px" viewBox="0 0 48 48" version="1.1" xmlns="http://www.w3.org/2000/svg">
  <!-- Generator: Sketch 41.2 (35397) - http://www.bohemiancoding.com/sketch -->
  <title>windows</title>
  <desc>Created with Sketch.</desc>
  <defs></defs>
  <g id="Page-1" stroke="none" stroke-width="1" fill="none" fill-rule="evenodd">
    <g id="windows" fill="#000000">
      <g id="레이어_1">
        <path d="M20.4,23.1 L20.4,4.1 L47.7,0 L47.7,23.2 L20.4,23.1 L20.4,23.1 Z M0.4,23.1 L0.4,7.1 L18.3,4.4 L18.3,23.1 C18.3,23.1 0.4,23.1 0.4,23.1 Z M18.3,25.3 L18.3,43.6 L0.4,40.9 L0.4,25.3 C0.4,25.3 18.3,25.3 18.3,25.3 Z M47.7,25.3 L47.7,48 L20.5,43.9 L20.5,25.3 C20.4,25.3 47.7,25.3 47.7,25.3 Z" id="Shape"></path>
      </g>
    </g>
  </g>
</svg>
